!!!COM: Palestrina, Giovanni Perluigi da
!!!OPR: Missa De beata virgine (1567)
!!!OMD: Credo
!!!OTL: First Section
**kern	**kern	**kern	**kern
*Ibass	*Itenor	*Icalto	*Icant
!Bassus	!Tenor	!Altus	!Cantus
*clefF4	*clefGv2	*clefG2	*clefG2
*k[b-]	*k[b-]	*k[b-]	*k[b-]
*?:X	*?:X	*?:X	*?:X
*M4/2	*M4/2	*M4/2	*M4/2
=1	=1	=1	=1
1A	1r	1e	0r
1D	1A	1f	.
=2	=2	=2	=2
1A	1c	2e	0r
.	.	2c	.
2G	2B	2d	.
2E	2G	[2e	.
=3	=3	=3	=3
2F#	2A	4e]	0r
.	.	4d	.
2G	2.B	1d	.
1E	.	.	.
.	4A	.	.
.	[2G	2c#	.
=4	=4	=4	=4
1D	2G]	[0d	1a
.	2F#	.	.
1GG	2G	.	1b-
.	4D	.	.
.	4E	.	.
=5	=5	=5	=5
1D	4F	0d]	2a
.	4G	.	.
.	2A	.	2f
2G	2B-	.	2g
2F#	2A	.	[2a
=6	=6	=6	=6
1G	2.B-	[0d	4a]
.	.	.	4g
.	.	.	1g
.	8A	.	.
.	8G	.	.
1D	1A	.	.
.	.	.	2f#
=7	=7	=7	=7
0GG	1G	0d]	[0g
.	2r	.	.
.	[2B	.	.
=8	=8	=8	=8
1E	2B]	0r	1g]
.	1c	.	.
1F	.	.	1r
.	2d	.	.
=9	=9	=9	=9
2G	2d	1B	1r
2G	1e	.	.
1A	.	1c	1e
.	[2A	.	.
=10	=10	=10	=10
1D	2A]	2d	1f
.	4d	2d	.
.	4c	.	.
1G	4B	1d	2g
.	4A	.	.
.	4G	.	2g
.	4F	.	.
=11	=11	=11	=11
1C	4E	2c	1g
.	4C	.	.
.	2c	1e	.
1D	2A	.	2f
.	2F	[2d	[2a
=12	=12	=12	=12
1E	1G	2d]	2a]
.	.	2c#	1g
1D	1A	[1d	.
.	.	.	2f#
=13	=13	=13	=13
1G	2G	1d]	1g
.	2B	.	.
2E	2c	1r	1r
2F	2d	.	.
=14	=14	=14	=14
2G	2d	1B	1r
2G	2.e	.	.
1A	.	1c	2e
.	4d	.	.
.	2c	.	2f
=15	=15	=15	=15
2G	2B	2d	2g
2F	2A	2d	2a
2.E	2c	1e	2g
.	[2B	.	[2g
4F	.	.	.
=16	=16	=16	=16
2G	2B]	2d	2g]
2A	1A	2c	2f
1E	.	1B	1e
.	2G#	.	.
=17	=17	=17	=17
1AA	1A	1A	2r
.	.	.	2a
1r	2r	1e	2b
.	[2A	.	[2cc
=18	=18	=18	=18
0r	2A]	1f	2cc]
.	2B	.	4b
.	.	.	4a
.	2.c	1e	2g
.	.	.	2a
.	4B	.	.
=19	=19	=19	=19
0r	2G	2d	2b-
.	2A	2c	4a
.	.	.	4g
.	2B-	2d	2f
.	2G	[2e	[2g
=20	=20	=20	=20
0r	1B-	4e]	4g]
.	.	4d	4f
.	.	1d	2d
.	2.A	.	2e
.	.	2c#	2e
.	4G	.	.
=21	=21	=21	=21
2r	2F	0d	1d
1G	2G	.	.
.	1D	.	1a
2F#	.	.	.
=22	=22	=22	=22
2G	1r	2.B	2b
2G	.	.	2.dd
.	.	4c	.
2F#	2r	2d	.
.	.	.	4cc
2G	[2G	2d	2b
=23	=23	=23	=23
1D	2G]	2d	1a
.	2F#	2d	.
1GG	2G	[1d	2.b
.	2G	.	.
.	.	.	8a
.	.	.	8g
=24	=24	=24	=24
2r	2F#	2d]	2a
1G	2G	2B	2b
.	1C	1c	2g
2E	.	.	[2cc
=25	=25	=25	=25
2F	1r	1d	2cc]
2G	.	.	2b
2.C	2r	[1e	2cc
.	[2c	.	[2a
4D	.	.	.
=26	=26	=26	=26
1E	2c]	1e]	4a]
.	.	.	8g
.	.	.	8f#
.	2B	.	2g#
1AA	2c	1r	2a
.	[2A	.	[2cc
=27	=27	=27	=27
1E	4A]	1e	2cc]
.	8G	.	.
.	8F#	.	.
.	2G#	.	2b
2r	2A	1f	2.a
2A	2D	.	.
.	.	.	4b
=28	=28	=28	=28
2A	1E	2e	2cc
2G#	.	2e	2b
2.A	2r	1e	1a
.	2A	.	.
4G	.	.	.
=29	=29	=29	=29
2F	2A	2d	1r
2E	2G	2c	.
2D	2.A	2d	2r
2C#	.	[2e	2a
.	4G	.	.
=30	=30	=30	=30
2D	2F	4e]	2a
.	.	4d	.
2BB	2D	1d	2g
1AA	2E	.	2a
.	2E	2c#	2a
=31	=31	=31	=31
2GG	1G	[0d	2.b
1G	.	.	.
.	.	.	4g
.	1D	.	2a
2F#	.	.	2a
=32	=32	=32	=32
2G	2r	1d]	1b
2G	1d	.	.
2F	.	1r	1r
2E	2c#	.	.
=33	=33	=33	=33
1D	2d	0r	0r
.	2d	.	.
2r	2c	.	.
2G	2B	.	.
=34	=34	=34	=34
2F	2A	0r	0r
2D	2d	.	.
2E	2c	.	.
2F	2A	.	.
=35	=35	=35	=35
4G	2B	0r	0r
4F	.	.	.
4E	2B	.	.
4D	.	.	.
2C	4c	.	.
.	4B	.	.
[2D	4A	.	.
.	4G	.	.
=36	=36	=36	=36
4D]	4F	1r	0r
4C	4E	.	.
4C	1A	.	.
8BB	.	.	.
8AA	.	.	.
2BB	.	1d	.
2BB	2G#	.	.
=37	=37	=37	=37
2AA	1A	1c	2r
2AA	.	.	2a
2C	2r	1e	2g
2C	2E	.	2g
=38	=38	=38	=38
2GG	2G	1d	1b
2.G	2G	.	.
.	1D	1d	1a
8F	.	.	.
8E	.	.	.
2F#	.	.	.
=39	=39	=39	=39
1G	0G	2r	1b
.	.	2d	.
2r	.	2d	2b
2C	.	2e	2cc
=40	=40	=40	=40
2D	2r	2.d	2b
2D	2F#	.	2a
.	.	4c	.
2E	2G	1B	2.g
2E	2G	.	.
.	.	.	4f
=41	=41	=41	=41
2AA	2A	1c	[0e
1A	2A	.	.
.	2E	1B	.
2G#	[2e	.	.
=42	=42	=42	=42
1A	4e]	1c	1e]
.	4d	.	.
.	2c	.	.
2G	2B	1d	2r
2F	2A	.	[2a
=43	=43	=43	=43
1E	2B	0e	2a]
.	2E	.	2g#
2r	2A	.	2a
2E	2G#	.	2b
=44	=44	=44	=44
2A	2A	1e	2cc
2G#	2E	.	2b
2.A	2r	2.c	2e
.	2A	.	[2a
8G	.	4d	.
8F	.	.	.
=45	=45	=45	=45
2E	2B	1e	4a]
.	.	.	4g
2C	2c	.	1g
1D	1A	1d	.
.	.	.	2f#
=46	=46	=46	=46
1GG	0G	2r	1g
.	.	1d	.
2r	.	.	2r
[2G	.	2d	[2b
=47	=47	=47	=47
2G]	0r	1d	2b]
2G	.	.	2b
2E	.	1e	2b
2C	.	.	2cc
=48	=48	=48	=48
1G	2r	1d	4b
.	.	.	4a
.	1G	.	4b
.	.	.	4cc
1GG	.	1B	4dd
.	.	.	4cc
.	2G	.	4b
.	.	.	4a
=49	=49	=49	=49
1r	2E	2c	4g
.	.	.	4f
.	2C	2c	2e
2r	1G	2.B	1d
[2G	.	.	.
.	.	4c	.
=50	=50	=50	=50
2G]	2D	1d	1r
2F#	1d	.	.
2G	.	1B	2r
2E	2G	.	[2g
=51	=51	=51	=51
2D	2A	1d	2g]
2D	2A	.	2f#
4C	1c	1e	2g
4D	.	.	.
4E	.	.	2e
4F	.	.	.
=52	=52	=52	=52
2G	2B	0r	2d
2A	1c	.	2c
1G	.	.	1d
.	2B	.	.
=53	=53	=53	=53
1C	1c	1e	2c
.	.	.	2g
1r	2.F	1f	2a
.	.	.	[2cc
.	4G	.	.
=54	=54	=54	=54
2r	2A	1e	2cc]
2G	2E	.	2b
2A	1r	1e	2a
[2c	.	.	2g
=55	=55	=55	=55
2c]	2r	1d	2a
2B	2G	.	2b
1A	2A	1c	2.e
.	[2c	.	.
.	.	.	4f
=56	=56	=56	=56
1.G	2c]	2d	2.g
.	2B	2.e	.
.	.	.	4a
.	2G	.	2b
.	.	4d	.
2F	2A	[2d	[2a
=57	=57	=57	=57
1E	2B	2d]	4a]
.	.	.	4g
.	2G	2c#	1g
1D	1A	1d	.
.	.	.	2f#
=58	=58	=58	=58
2r	2G	2r	1g
2G	2B	2d	.
2F#	2A	2d	2r
2G	2B	2d	2g
=59	=59	=59	=59
1C	1c	1e	2g
.	.	.	2g
1r	1F	2d	1a
.	.	2c	.
=60	=60	=60	=60
0r	1G	1B	2g
.	.	.	2f
.	2A	1c	2e
.	2A	.	2e
=61	=61	=61	=61
1r	2G#	2B	2e
.	2A	2c	2e
2r	1D	1d	1f
2A	.	.	.
=62	=62	=62	=62
2G#	2E	2B	2e
2A	1A	2c	2e
1D	.	[1d	4f
.	.	.	4g
.	[2d	.	4a
.	.	.	4f
=63	=63	=63	=63
2G	4d]	1d]	2g
.	4c	.	.
2F	2A	.	1a
1E	1B	[1e	.
.	.	.	2g#
=64	=64	=64	=64
[0AA	1A	1e]	0a
.	2r	1e	.
.	2c	.	.
=65	=65	=65	=65
0AA]	2.c	1e	2r
.	.	.	2cc
.	4B	.	.
.	2.A	[1c	2.cc
.	4G	.	4b
=66	=66	=66	=66
0r	2F	2c]	2a
.	2E	2c	2g
.	2D	2d	2f
.	2C	[2e	[2g
=67	=67	=67	=67
0r	1D	4e]	4g]
.	.	4d	4f
.	.	1d	4f
.	.	.	8e
.	.	.	8d
.	1A	.	1e
.	.	2c#	.
=68	=68	=68	=68
2r	0D	[0d	2d
2F	.	.	2a
2.F	.	.	1a
4E	.	.	.
=69	=69	=69	=69
2.D	1A	0d]	1.f
4C	.	.	.
2.BB-	1B-	.	.
.	.	.	2f
4AA	.	.	.
=70	=70	=70	=70
2GG	2B-	[0d	2g
2FF#	2A	.	2.a
1GG	2.B-	.	.
.	.	.	4g
.	.	.	[2g
.	4G	.	.
=71	=71	=71	=71
1D	1A	0d]	2g]
.	.	.	2f#
1GG	1G	.	1g
=72	=72	=72	=72
1r	1r	1r	1r
1GG	1G	1d	1b
=73	=73	=73	=73
1GG	1G	1d	1b
1C	1G	1e	1cc
=74	=74	=74	=74
1GG	1G	1d	1b
1AA	2E	1c	1a
.	[2e	.	.
=75	=75	=75	=75
0E	2e]	1B	0g#
.	4d	.	.
.	4c	.	.
.	2B	2r	.
.	[2E	2B	.
=76	=76	=76	=76
1AA	2E]	1c	1r
.	2.A	.	.
2E	.	1B	2r
.	8G	.	.
.	8F#	.	.
2E	2G#	.	[2e
=77	=77	=77	=77
1AA	2A	1c	2e]
.	2c	.	2.a
1r	1B	1d	.
.	.	.	8g
.	.	.	8f#
.	.	.	2g#
=78	=78	=78	=78
2r	1A	0e	2a
1A	.	.	2cc
.	1E	.	1b
2G#	.	.	.
=79	=79	=79	=79
1A	2r	1r	1cc
.	1A	.	.
1E	.	1e	1b
.	2G#	.	.
=80	=80	=80	=80
1D	2.A	1f	2r
.	.	.	1a
.	4B	.	.
1E	2c	1e	.
.	2B	.	2g#
=81	=81	=81	=81
2.F	1A	1c	2.a
4E	.	.	4g
2D	2.A	2d	2f
2C#	.	[2e	2e
.	4G	.	.
=82	=82	=82	=82
2D	2F	4e]	2f
.	.	4d	.
2BB-	2D	1d	2g
1AA	2E	.	2.a
.	2E	2c#	.
.	.	.	4g
=83	=83	=83	=83
2r	1D	1d	4f
.	.	.	4g
2.A	.	.	4a
.	.	.	4b
.	2r	1r	2cc
8G	.	.	.
8F	.	.	.
2G	[2d	.	2b-
=84	=84	=84	=84
1A	4d]	1e	1a
.	8c	.	.
.	8B	.	.
.	2c#	.	.
1D	2.d	1f	2r
.	.	.	[2a
.	4c	.	.
=85	=85	=85	=85
1E	1B	1e	4a]
.	.	.	8g
.	.	.	8f#
.	.	.	2g#
2.F	1A	1c	1a
4E	.	.	.
=86	=86	=86	=86
2D	2r	2d	2a
2C	2.G	2.e	2cc
1D	.	.	2b
.	8F	4d	.
.	8E	.	.
.	2F#	[2d	[2a
=87	=87	=87	=87
1E	1G	2d]	4a]
.	.	.	4g
.	.	2c#	1g
1D	1A	1d	.
.	.	.	2f#
=88	=88	=88	=88
[0GG	[0G	[0d	[0g
=89	=89	=89	=89
0GG]	0G]	0d]	0g]
*-	*-	*-	*-
!!!CDT: 1525/^1526/-1594/2/2
!!!OCY: Italia
!!!AGN: Mass (Paraphrase)
!!!AST: renaissance, vocal
!!!ASW: Gregorian Mass
!!!PWK: Masses, Book 2
!!!RNB: Cadence finals: G,D,E,F,C
!!!YOR: Le Opere Complete, v. 4, p. 1
!!!YOO: Rome, Italy: Fratelli Scalera
!!!END: 1992//
!!!EED: John Miller
!!!YEC: Copyright 2000, John Miller
!!!YEN: United States of America
!!!YEM: Rights to all derivative electronic formats reserved.
!!!YEM: Refer to licensing agreement for further details.
!!!YEM: This file must be accompanied by the licensing agreement.
!!!YEM: A copy of the licensing agreement may be found at http://www.music-cog.ohio-state.edu/HumdrumDatabases/Palestrina/license.txt
!!!EMD: converted to Humdrum by Bret Aarden
